X:114
T: Jungbrunnen
N: A0133A
O: Europa, Mitteleuropa, Deutschland
N: Joh. Ott 1534 No. 44
R: Romanze, Ballade, Lied
M: 4/1
L: 1/2
K: D
=C2 | D2E2=F2D2 | =C4D3
E | =F2G2E4 | D4z2
=C2 | D2E2=F2D2 | =C4D3
E | =F2G2E4 | D4z2
D2 | A2A2A2G2 | G4A2
G2 | =F2E2D2D2 | A,4z2
A,2 | D2=C2D2E2 | =F4E2
D2 | =F3ED2A2 | G4E4 | D6

